!!!OTL:Sehnsucht nach dem Fruehlinge.
!!!OTL-incipit:SCHOENER FRUEHLING KOMM DOCH WIEDER
!!!COM: Volksweise
!!!ARE: Europa, Mitteleuropa, Deutschland
!!!SCT: F0221A
!!!TXL: @@DE
!!!YEM: Copyright 1995, estate of Helmut Schaffrath.
**kern	**text	**text	**text
*ICvox	*	*	*
*M3/4	*	*	*
*k[]	*	*	*
*C:	*	*	*
!LO:TX:a:t=Ziemlich Schnell	!	!	!
!LO:TX:a:t=Volksweise	!	!	!
!LO:TX:a:t=Zweistimmig.	!	!	!
{8.g	1._Schö-	2._Auf	3._Ja,
16f	-ner	die	du
=1	=1	=1	=1
4e	Frühling,	Ber-	bist
4c	.	-ge	uns
8.cc	komm	möcht'	treu
16a	doch	ich	ge-
=2	=2	=2	=2
4g	wie-	flie-	-blie-
4e}	-der!	-gen,	-ben,
{8.a	Lie-	möch-	kommst
16g	-ber	-te	nun
=3	=3	=3	=3
4f	Frühling,	seh'n	bald
4d	.	ein	mit
8.g	komm	grü-	Pracht
16f	doch	-nes	und
=4	=4	=4	=4
4e	bald!	Thal,	Glanz,
4r}	.	.	.
{8.ee	Bring'	möcht	bringst
16dd	uns	in	nun
=5	=5	=5	=5
4cc	Blu-	Gras	bald
4g	-men,	und	all'
8.cc	Laub	Blu-	dei-
16a	und	-men	-ne
=6	=6	=6	=6
4g	Lie-	lie-	Lie-
4e}	-der,	-gen,	-ben:
{8.a	schmü-	und	Sang
16g	-cke	mich	und
=7	=7	=7	=7
4f	wie-	freu'n	Freu-
4d	-der	am	-de,
8g	Feld	Son-	Spiel
8f	und	-nen-	und
=8	=8	=8	=8
4e	Wald!	-strahl.	Tanz.
4r	.	.	.
4r}	.	.	.
=9	=9	=9	=9
{4.g	La	.	.
8ff	la,	.	.
8.ee	la,	.	.
16dd	la,	.	.
=10	=10	=10	=10
8.cc	la,	.	.
16e	la,	.	.
4g	la,	.	.
4r}	.	.	.
=11	=11	=11	=11
{8.g	la,	.	.
16b/	la,	.	.
4dd	la,	.	.
4dd	la,	.	.
=12	=12	=12	=12
8.cc	la,	.	.
16dd	la,	.	.
4ee	la,	.	.
4ee}	la,	.	.
=13	=13	=13	=13
{4.g	la,	.	.
8ff	la,	.	.
8.ee	la,	.	.
16dd	la,	.	.
=14	=14	=14	=14
8.cc	la,	.	.
16e	la,	.	.
4g	la,	.	.
4r}	.	.	.
=15	=15	=15	=15
{8.g	la,	.	.
16a	la,	.	.
4dd	la,	.	.
4b	la,	.	.
=16	=16	=16	=16
4cc	la.	.	.
4r}	.	.	.
==	==	==	==
!!!AGN: Jahreszeiten - Lied, Fruehling, Natur
!!!ONB: ESAC (Essen Associative Code) Database: FINK
!!!AMT: simple triple
!!!AIN: vox
!!!EED: Helmut Schaffrath
!!!EEV: 1.0
!!!source: Musikalischer Hausschatz der Deutschen. Eine Sammlung von über 1000 Liedern und Gesängen mit Singstimmen und Klavierbegleitung. Leipzig, Litterarisches Verlags-Haus.
!!!page: 129
!!!ENC: Anna Maria Matuszewska
!!!EEV: 2025/03/12
*-	*-	*-	*-
